producthuntturkey/static/images/svg/linkedin_tr.svg

<svg width="156" height="55" viewBox="0 0 156 55" fill="none" xmlns="http://www.w3.org/2000/svg">
<path d="M149.124 1H6.8755C3.63055 1 1 5.25329 1 10.5V44.5C1 49.7467 3.63055 54 6.8755 54H149.124C152.369 54 155 49.7467 155 44.5V10.5C155 5.25329 152.369 1 149.124 1Z" fill="#FFFFFC" stroke="black"/>
<path d="M67.305 22C66.897 22 66.693 21.796 66.693 21.388V16.267C66.693 15.859 66.897 15.655 67.305 15.655H69.465C70.131 15.655 70.647 15.802 71.013 16.096C71.379 16.384 71.562 16.786 71.562 17.302C71.562 17.644 71.475 17.938 71.301 18.184C71.127 18.43 70.887 18.61 70.581 18.724C70.941 18.826 71.22 19.006 71.418 19.264C71.622 19.516 71.724 19.837 71.724 20.227C71.724 20.791 71.532 21.229 71.148 21.541C70.77 21.847 70.242 22 69.564 22H67.305ZM67.8 18.346H69.267C70.053 18.346 70.446 18.043 70.446 17.437C70.446 16.831 70.053 16.528 69.267 16.528H67.8V18.346ZM67.8 21.127H69.42C70.212 21.127 70.608 20.809 70.608 20.173C70.608 19.537 70.212 19.219 69.42 19.219H67.8V21.127ZM74.5003 22.072C74.1163 22.072 73.9243 21.874 73.9243 21.478V16.177C73.9243 15.781 74.1163 15.583 74.5003 15.583C74.8843 15.583 75.0763 15.781 75.0763 16.177V21.478C75.0763 21.874 74.8843 22.072 74.5003 22.072ZM74.5003 14.899C74.1103 14.899 73.9153 14.71 73.9153 14.332C73.9153 13.96 74.1103 13.774 74.5003 13.774C74.8903 13.774 75.0853 13.96 75.0853 14.332C75.0853 14.71 74.8903 14.899 74.5003 14.899ZM77.7603 22C77.5623 22 77.4123 21.949 77.3103 21.847C77.2143 21.739 77.1723 21.601 77.1843 21.433C77.2023 21.265 77.2773 21.091 77.4093 20.911L80.5773 16.618H77.6703C77.3283 16.618 77.1573 16.456 77.1573 16.132C77.1573 15.814 77.3283 15.655 77.6703 15.655H81.3963C81.5943 15.655 81.7413 15.709 81.8373 15.817C81.9393 15.919 81.9843 16.054 81.9723 16.222C81.9603 16.384 81.8853 16.558 81.7473 16.744L78.5793 21.037H81.6213C81.9633 21.037 82.1343 21.196 82.1343 21.514C82.1343 21.838 81.9633 22 81.6213 22H77.7603ZM84.5595 22.072C84.1755 22.072 83.9835 21.874 83.9835 21.478V16.177C83.9835 15.781 84.1755 15.583 84.5595 15.583C84.9435 15.583 85.1355 15.781 85.1355 16.177V21.478C85.1355 21.874 84.9435 22.072 84.5595 22.072ZM84.5595 14.899C84.1695 14.899 83.9745 14.71 83.9745 14.332C83.9745 13.96 84.1695 13.774 84.5595 13.774C84.9495 13.774 85.1445 13.96 85.1445 14.332C85.1445 14.71 84.9495 14.899 84.5595 14.899ZM93.1429 22.072C92.7589 22.072 92.5669 21.874 92.5669 21.478V16.618H90.8119C90.4819 16.618 90.3169 16.456 90.3169 16.132C90.3169 15.814 90.4819 15.655 90.8119 15.655H95.4739C95.8039 15.655 95.9689 15.814 95.9689 16.132C95.9689 16.456 95.8039 16.618 95.4739 16.618H93.7189V21.478C93.7189 21.874 93.5269 22.072 93.1429 22.072ZM97.0217 22.072C96.8117 22.072 96.6617 22 96.5717 21.856C96.4817 21.712 96.4847 21.538 96.5807 21.334L98.9567 16.069C99.0347 15.895 99.1277 15.772 99.2357 15.7C99.3497 15.622 99.4787 15.583 99.6227 15.583C99.7607 15.583 99.8837 15.622 99.9917 15.7C100.106 15.772 100.202 15.895 100.28 16.069L102.665 21.334C102.761 21.544 102.767 21.721 102.683 21.865C102.599 22.003 102.455 22.072 102.251 22.072C102.083 22.072 101.951 22.033 101.855 21.955C101.765 21.871 101.684 21.745 101.612 21.577L101.162 20.533H98.0657L97.6247 21.577C97.5467 21.751 97.4657 21.877 97.3817 21.955C97.2977 22.033 97.1777 22.072 97.0217 22.072ZM99.6047 16.906L98.4617 19.615H100.766L99.6227 16.906H99.6047ZM105.267 22.072C104.883 22.072 104.691 21.874 104.691 21.478V16.168C104.691 15.778 104.883 15.583 105.267 15.583C105.651 15.583 105.843 15.778 105.843 16.168V18.463H105.861L108.444 15.871C108.54 15.775 108.636 15.703 108.732 15.655C108.828 15.607 108.936 15.583 109.056 15.583C109.23 15.583 109.353 15.628 109.425 15.718C109.503 15.808 109.533 15.913 109.515 16.033C109.503 16.153 109.446 16.264 109.344 16.366L106.977 18.706L109.47 21.235C109.596 21.355 109.662 21.481 109.668 21.613C109.674 21.745 109.632 21.856 109.542 21.946C109.458 22.03 109.332 22.072 109.164 22.072C109.02 22.072 108.903 22.042 108.813 21.982C108.729 21.922 108.63 21.835 108.516 21.721L105.861 19.066H105.843V21.478C105.843 21.874 105.651 22.072 105.267 22.072ZM112.287 22.072C111.903 22.072 111.711 21.874 111.711 21.478V16.177C111.711 15.781 111.903 15.583 112.287 15.583C112.671 15.583 112.863 15.781 112.863 16.177V21.478C112.863 21.874 112.671 22.072 112.287 22.072ZM112.287 14.899C111.897 14.899 111.702 14.71 111.702 14.332C111.702 13.96 111.897 13.774 112.287 13.774C112.677 13.774 112.872 13.96 112.872 14.332C112.872 14.71 112.677 14.899 112.287 14.899ZM115.862 22.072C115.478 22.072 115.286 21.874 115.286 21.478V16.24C115.286 15.85 115.481 15.655 115.871 15.655H118.04C118.736 15.655 119.273 15.829 119.651 16.177C120.029 16.525 120.218 17.011 120.218 17.635C120.218 18.259 120.029 18.748 119.651 19.102C119.273 19.45 118.736 19.624 118.04 19.624H116.438V21.478C116.438 21.874 116.246 22.072 115.862 22.072ZM116.438 18.715H117.86C118.688 18.715 119.102 18.355 119.102 17.635C119.102 16.921 118.688 16.564 117.86 16.564H116.438V18.715ZM126.283 22C125.875 22 125.671 21.796 125.671 21.388V16.267C125.671 15.859 125.875 15.655 126.283 15.655H129.496C129.808 15.655 129.964 15.805 129.964 16.105C129.964 16.417 129.808 16.573 129.496 16.573H126.778V18.319H129.298C129.61 18.319 129.766 18.472 129.766 18.778C129.766 19.084 129.61 19.237 129.298 19.237H126.778V21.082H129.496C129.808 21.082 129.964 21.235 129.964 21.541C129.964 21.847 129.808 22 129.496 22H126.283ZM134.138 22.072C133.754 22.072 133.562 21.874 133.562 21.478V16.618H131.807C131.477 16.618 131.312 16.456 131.312 16.132C131.312 15.814 131.477 15.655 131.807 15.655H136.469C136.799 15.655 136.964 15.814 136.964 16.132C136.964 16.456 136.799 16.618 136.469 16.618H134.714V21.478C134.714 21.874 134.522 22.072 134.138 22.072Z" fill="black"/>
<path d="M68.7 41C68.232 41 67.878 40.88 67.638 40.64C67.398 40.388 67.278 40.034 67.278 39.578V29.696C67.278 29.24 67.398 28.892 67.638 28.652C67.878 28.4 68.226 28.274 68.682 28.274C69.606 28.274 70.068 28.748 70.068 29.696V38.642H74.892C75.696 38.642 76.098 39.032 76.098 39.812C76.098 40.604 75.696 41 74.892 41H68.7ZM78.9104 30.542C78.4064 30.542 78.0164 30.428 77.7404 30.2C77.4764 29.96 77.3444 29.624 77.3444 29.192C77.3444 28.748 77.4764 28.412 77.7404 28.184C78.0164 27.944 78.4064 27.824 78.9104 27.824C79.9424 27.824 80.4584 28.28 80.4584 29.192C80.4584 30.092 79.9424 30.542 78.9104 30.542ZM78.9104 41.144C78.4664 41.144 78.1244 41.018 77.8844 40.766C77.6564 40.502 77.5424 40.136 77.5424 39.668V33.512C77.5424 32.516 77.9984 32.018 78.9104 32.018C79.3424 32.018 79.6724 32.15 79.9004 32.414C80.1404 32.666 80.2604 33.032 80.2604 33.512V39.668C80.2604 40.136 80.1464 40.502 79.9184 40.766C79.6904 41.018 79.3544 41.144 78.9104 41.144ZM83.9068 41.162C82.9948 41.162 82.5388 40.7 82.5388 39.776V33.386C82.5388 32.474 82.9828 32.018 83.8708 32.018C84.7588 32.018 85.2028 32.474 85.2028 33.386V33.458C85.5028 32.978 85.9048 32.612 86.4088 32.36C86.9128 32.108 87.4768 31.982 88.1008 31.982C89.1448 31.982 89.9248 32.288 90.4408 32.9C90.9568 33.5 91.2148 34.43 91.2148 35.69V39.776C91.2148 40.7 90.7588 41.162 89.8468 41.162C89.4148 41.162 89.0788 41.042 88.8388 40.802C88.6108 40.562 88.4968 40.22 88.4968 39.776V35.816C88.4968 35.204 88.3828 34.766 88.1548 34.502C87.9268 34.226 87.5908 34.088 87.1468 34.088C86.5708 34.088 86.1088 34.268 85.7608 34.628C85.4248 34.988 85.2568 35.468 85.2568 36.068V39.776C85.2568 40.7 84.8068 41.162 83.9068 41.162ZM94.7918 41.162C93.8798 41.162 93.4238 40.7 93.4238 39.776V29.534C93.4238 28.61 93.8798 28.148 94.7918 28.148C95.6918 28.148 96.1418 28.61 96.1418 29.534V35.816H96.1778L98.7878 32.918C99.0518 32.618 99.2918 32.396 99.5078 32.252C99.7238 32.096 100.024 32.018 100.408 32.018C100.78 32.018 101.068 32.114 101.272 32.306C101.476 32.486 101.578 32.72 101.578 33.008C101.578 33.284 101.458 33.554 101.218 33.818L98.9138 36.392L101.524 39.398C101.752 39.686 101.848 39.968 101.812 40.244C101.788 40.508 101.668 40.73 101.452 40.91C101.236 41.078 100.96 41.162 100.624 41.162C100.204 41.162 99.8738 41.084 99.6338 40.928C99.4058 40.772 99.1598 40.532 98.8958 40.208L96.1778 37.184H96.1418V39.776C96.1418 40.7 95.6918 41.162 94.7918 41.162ZM108.09 41.198C107.046 41.198 106.146 41.012 105.39 40.64C104.646 40.256 104.07 39.722 103.662 39.038C103.266 38.342 103.068 37.526 103.068 36.59C103.068 35.678 103.26 34.88 103.644 34.196C104.04 33.5 104.574 32.96 105.246 32.576C105.93 32.18 106.716 31.982 107.604 31.982C108.888 31.982 109.908 32.39 110.664 33.206C111.42 34.01 111.798 35.102 111.798 36.482C111.798 36.938 111.516 37.166 110.952 37.166H105.66C105.756 37.862 106.008 38.372 106.416 38.696C106.836 39.008 107.412 39.164 108.144 39.164C108.432 39.164 108.756 39.134 109.116 39.074C109.488 39.002 109.842 38.882 110.178 38.714C110.526 38.546 110.82 38.516 111.06 38.624C111.3 38.72 111.462 38.888 111.546 39.128C111.642 39.368 111.642 39.62 111.546 39.884C111.462 40.136 111.264 40.346 110.952 40.514C110.532 40.742 110.064 40.91 109.548 41.018C109.044 41.138 108.558 41.198 108.09 41.198ZM107.712 33.782C107.136 33.782 106.668 33.956 106.308 34.304C105.96 34.652 105.744 35.138 105.66 35.762H109.548C109.476 34.442 108.864 33.782 107.712 33.782ZM116.997 41.198C116.229 41.198 115.551 41.012 114.963 40.64C114.387 40.256 113.937 39.722 113.613 39.038C113.289 38.342 113.127 37.52 113.127 36.572C113.127 35.624 113.289 34.808 113.613 34.124C113.937 33.44 114.387 32.912 114.963 32.54C115.551 32.168 116.229 31.982 116.997 31.982C117.585 31.982 118.125 32.108 118.617 32.36C119.109 32.612 119.481 32.948 119.733 33.368V29.534C119.733 28.61 120.183 28.148 121.083 28.148C121.995 28.148 122.451 28.61 122.451 29.534V39.776C122.451 40.7 122.001 41.162 121.101 41.162C120.201 41.162 119.751 40.7 119.751 39.776V39.722C119.511 40.178 119.139 40.538 118.635 40.802C118.143 41.066 117.597 41.198 116.997 41.198ZM117.807 39.164C118.383 39.164 118.851 38.954 119.211 38.534C119.583 38.114 119.769 37.46 119.769 36.572C119.769 35.696 119.583 35.054 119.211 34.646C118.851 34.226 118.383 34.016 117.807 34.016C117.231 34.016 116.763 34.226 116.403 34.646C116.043 35.054 115.863 35.696 115.863 36.572C115.863 37.46 116.043 38.114 116.403 38.534C116.763 38.954 117.231 39.164 117.807 39.164ZM126.364 41.162C125.908 41.162 125.56 41.036 125.32 40.784C125.08 40.532 124.96 40.178 124.96 39.722V29.588C124.96 28.628 125.428 28.148 126.364 28.148C127.288 28.148 127.75 28.628 127.75 29.588V39.722C127.75 40.682 127.288 41.162 126.364 41.162ZM131.617 41.162C130.705 41.162 130.249 40.7 130.249 39.776V33.386C130.249 32.474 130.693 32.018 131.581 32.018C132.469 32.018 132.913 32.474 132.913 33.386V33.458C133.213 32.978 133.615 32.612 134.119 32.36C134.623 32.108 135.187 31.982 135.811 31.982C136.855 31.982 137.635 32.288 138.151 32.9C138.667 33.5 138.925 34.43 138.925 35.69V39.776C138.925 40.7 138.469 41.162 137.557 41.162C137.125 41.162 136.789 41.042 136.549 40.802C136.321 40.562 136.207 40.22 136.207 39.776V35.816C136.207 35.204 136.093 34.766 135.865 34.502C135.637 34.226 135.301 34.088 134.857 34.088C134.281 34.088 133.819 34.268 133.471 34.628C133.135 34.988 132.967 35.468 132.967 36.068V39.776C132.967 40.7 132.517 41.162 131.617 41.162Z" fill="black"/>
<path d="M41.9 12H19.5C17.568 12 16 13.568 16 15.5V37.9C16 39.832 17.568 41.4 19.5 41.4H41.9C43.832 41.4 45.4 39.832 45.4 37.9V15.5C45.4 13.568 43.832 12 41.9 12ZM25.1 23.2V36.5H20.9V23.2H25.1ZM20.9 19.329C20.9 18.349 21.74 17.6 23 17.6C24.26 17.6 25.051 18.349 25.1 19.329C25.1 20.309 24.316 21.1 23 21.1C21.74 21.1 20.9 20.309 20.9 19.329ZM40.5 36.5H36.3C36.3 36.5 36.3 30.018 36.3 29.5C36.3 28.1 35.6 26.7 33.85 26.672H33.794C32.1 26.672 31.4 28.114 31.4 29.5C31.4 30.137 31.4 36.5 31.4 36.5H27.2V23.2H31.4V24.992C31.4 24.992 32.751 23.2 35.467 23.2C38.246 23.2 40.5 25.111 40.5 28.982V36.5Z" fill="black"/>
</svg>

<svg xmlns="http://www.w3.org/2000/svg" width="156" height="55" fill="none" xmlns:v="https://vecta.io/nano"><path d="M149.124 1H6.876C3.631 1 1 5.253 1 10.5v34C1 49.747 3.631 54 6.876 54h142.249c3.245 0 5.876-4.253 5.876-9.5v-34c0-5.247-2.631-9.5-5.876-9.5z" fill="#fffffc" stroke="#000"/><path d="M67.305 22c-.408 0-.612-.204-.612-.612v-5.121c0-.408.204-.612.612-.612h2.16c.666 0 1.182.147 1.548.441.366.288.549.69.549 1.206 0 .342-.087.636-.261.882s-.414.426-.72.54c.36.102.639.282.837.54.204.252.306.573.306.963 0 .564-.192 1.002-.576 1.314-.378.306-.906.459-1.584.459h-2.259zm.495-3.654h1.467c.786 0 1.179-.303 1.179-.909s-.393-.909-1.179-.909H67.8v1.818zm0 2.781h1.62c.792 0 1.188-.318 1.188-.954s-.396-.954-1.188-.954H67.8v1.908zm6.7.945c-.384 0-.576-.198-.576-.594v-5.301c0-.396.192-.594.576-.594s.576.198.576.594v5.301c0 .396-.192.594-.576.594zm0-7.173c-.39 0-.585-.189-.585-.567 0-.372.195-.558.585-.558s.585.186.585.558c0 .378-.195.567-.585.567zM77.76 22c-.198 0-.348-.051-.45-.153-.096-.108-.138-.246-.126-.414.018-.168.093-.342.225-.522l3.168-4.293H77.67c-.342 0-.513-.162-.513-.486 0-.318.171-.477.513-.477h3.726c.198 0 .345.054.441.162.102.102.147.237.135.405-.012.162-.087.336-.225.522l-3.168 4.293h3.042c.342 0 .513.159.513.477 0 .324-.171.486-.513.486H77.76zm6.799.072c-.384 0-.576-.198-.576-.594v-5.301c0-.396.192-.594.576-.594s.576.198.576.594v5.301c0 .396-.192.594-.576.594zm0-7.173c-.39 0-.585-.189-.585-.567 0-.372.195-.558.585-.558s.585.186.585.558c0 .378-.195.567-.585.567zm8.583 7.173c-.384 0-.576-.198-.576-.594v-4.86h-1.755c-.33 0-.495-.162-.495-.486 0-.318.165-.477.495-.477h4.662c.33 0 .495.159.495.477 0 .324-.165.486-.495.486h-1.755v4.86c0 .396-.192.594-.576.594zm3.879 0c-.21 0-.36-.072-.45-.216s-.087-.318.009-.522l2.376-5.265c.078-.174.171-.297.279-.369a.67.67 0 0 1 .387-.117c.138 0 .261.039.369.117a.81.81 0 0 1 .288.369l2.385 5.265c.096.21.102.387.018.531-.084.138-.228.207-.432.207-.168 0-.3-.039-.396-.117-.09-.084-.171-.21-.243-.378l-.45-1.044h-3.096l-.441 1.044c-.078.174-.159.3-.243.378s-.204.117-.36.117zm2.583-5.166l-1.143 2.709h2.304l-1.143-2.709h-.018zm5.662 5.166c-.384 0-.576-.198-.576-.594v-5.31c0-.39.192-.585.576-.585s.576.195.576.585v2.295h.018l2.583-2.592a1.13 1.13 0 0 1 .288-.216c.096-.048.204-.072.324-.072.174 0 .297.045.369.135.078.09.108.195.09.315-.012.12-.069.231-.171.333l-2.367 2.34 2.493 2.529a.56.56 0 0 1 .198.378c.006.132-.036.243-.126.333-.084.084-.21.126-.378.126-.144 0-.261-.03-.351-.09-.084-.06-.183-.147-.297-.261l-2.655-2.655h-.018v2.412c0 .396-.192.594-.576.594zm7.02 0c-.384 0-.576-.198-.576-.594v-5.301c0-.396.192-.594.576-.594s.576.198.576.594v5.301c0 .396-.192.594-.576.594zm0-7.173c-.39 0-.585-.189-.585-.567 0-.372.195-.558.585-.558s.585.186.585.558c0 .378-.195.567-.585.567zm3.575 7.173c-.384 0-.576-.198-.576-.594V16.24c0-.39.195-.585.585-.585h2.169c.696 0 1.233.174 1.611.522s.567.834.567 1.458-.189 1.113-.567 1.467c-.378.348-.915.522-1.611.522h-1.602v1.854c0 .396-.192.594-.576.594zm.576-3.357h1.422c.828 0 1.242-.36 1.242-1.08 0-.714-.414-1.071-1.242-1.071h-1.422v2.151zM126.283 22c-.408 0-.612-.204-.612-.612v-5.121c0-.408.204-.612.612-.612h3.213c.312 0 .468.15.468.45 0 .312-.156.468-.468.468h-2.718v1.746h2.52c.312 0 .468.153.468.459s-.156.459-.468.459h-2.52v1.845h2.718c.312 0 .468.153.468.459s-.156.459-.468.459h-3.213zm7.855.072c-.384 0-.576-.198-.576-.594v-4.86h-1.755c-.33 0-.495-.162-.495-.486 0-.318.165-.477.495-.477h4.662c.33 0 .495.159.495.477 0 .324-.165.486-.495.486h-1.755v4.86c0 .396-.192.594-.576.594zM68.7 41c-.468 0-.822-.12-1.062-.36-.24-.252-.36-.606-.36-1.062v-9.882c0-.456.12-.804.36-1.044.24-.252.588-.378 1.044-.378.924 0 1.386.474 1.386 1.422v8.946h4.824c.804 0 1.206.39 1.206 1.17 0 .792-.402 1.188-1.206 1.188H68.7zm10.21-10.458c-.504 0-.894-.114-1.17-.342-.264-.24-.396-.576-.396-1.008 0-.444.132-.78.396-1.008.276-.24.666-.36 1.17-.36 1.032 0 1.548.456 1.548 1.368 0 .9-.516 1.35-1.548 1.35zm0 10.602c-.444 0-.786-.126-1.026-.378-.228-.264-.342-.63-.342-1.098v-6.156c0-.996.456-1.494 1.368-1.494.432 0 .762.132.99.396.24.252.36.618.36 1.098v6.156c0 .468-.114.834-.342 1.098-.228.252-.564.378-1.008.378zm4.996.018c-.912 0-1.368-.462-1.368-1.386v-6.39c0-.912.444-1.368 1.332-1.368s1.332.456 1.332 1.368v.072c.3-.48.702-.846 1.206-1.098a3.73 3.73 0 0 1 1.692-.378c1.044 0 1.824.306 2.34.918.516.6.774 1.53.774 2.79v4.086c0 .924-.456 1.386-1.368 1.386-.432 0-.768-.12-1.008-.36-.228-.24-.342-.582-.342-1.026v-3.96c0-.612-.114-1.05-.342-1.314-.228-.276-.564-.414-1.008-.414-.576 0-1.038.18-1.386.54-.336.36-.504.84-.504 1.44v3.708c0 .924-.45 1.386-1.35 1.386zm10.885 0c-.912 0-1.368-.462-1.368-1.386V29.534c0-.924.456-1.386 1.368-1.386.9 0 1.35.462 1.35 1.386v6.282h.036l2.61-2.898c.264-.3.504-.522.72-.666.216-.156.516-.234.9-.234.372 0 .66.096.864.288.204.18.306.414.306.702 0 .276-.12.546-.36.81l-2.304 2.574 2.61 3.006c.228.288.324.57.288.846-.024.264-.144.486-.36.666-.216.168-.492.252-.828.252-.42 0-.75-.078-.99-.234-.228-.156-.474-.396-.738-.72l-2.718-3.024h-.036v2.592c0 .924-.45 1.386-1.35 1.386zm13.298.036c-1.044 0-1.944-.186-2.7-.558a4.21 4.21 0 0 1-1.728-1.602c-.396-.696-.594-1.512-.594-2.448 0-.912.192-1.71.576-2.394a4.24 4.24 0 0 1 1.602-1.62c.684-.396 1.47-.594 2.358-.594 1.284 0 2.304.408 3.06 1.224.756.804 1.134 1.896 1.134 3.276 0 .456-.282.684-.846.684h-5.292c.096.696.348 1.206.756 1.53.42.312.996.468 1.728.468a5.97 5.97 0 0 0 .972-.09 4.11 4.11 0 0 0 1.062-.36c.348-.168.642-.198.882-.09a.81.81 0 0 1 .486.504c.096.24.096.492 0 .756-.084.252-.282.462-.594.63-.42.228-.888.396-1.404.504a6.29 6.29 0 0 1-1.458.18zm-.378-7.416c-.576 0-1.044.174-1.404.522-.348.348-.564.834-.648 1.458h3.888c-.072-1.32-.684-1.98-1.836-1.98zm9.285 7.416c-.768 0-1.446-.186-2.034-.558-.576-.384-1.026-.918-1.35-1.602-.324-.696-.486-1.518-.486-2.466s.162-1.764.486-2.448.774-1.212 1.35-1.584c.588-.372 1.266-.558 2.034-.558a3.5 3.5 0 0 1 1.62.378c.492.252.864.588 1.116 1.008v-3.834c0-.924.45-1.386 1.35-1.386.912 0 1.368.462 1.368 1.386v10.242c0 .924-.45 1.386-1.35 1.386s-1.35-.462-1.35-1.386v-.054c-.24.456-.612.816-1.116 1.08-.492.264-1.038.396-1.638.396zm.81-2.034a1.76 1.76 0 0 0 1.404-.63c.372-.42.558-1.074.558-1.962 0-.876-.186-1.518-.558-1.926a1.76 1.76 0 0 0-1.404-.63 1.76 1.76 0 0 0-1.404.63c-.36.408-.54 1.05-.54 1.926 0 .888.18 1.542.54 1.962a1.76 1.76 0 0 0 1.404.63zm8.557 1.998c-.456 0-.804-.126-1.044-.378s-.36-.606-.36-1.062V29.588c0-.96.468-1.44 1.404-1.44.924 0 1.386.48 1.386 1.44v10.134c0 .96-.462 1.44-1.386 1.44zm5.253 0c-.912 0-1.368-.462-1.368-1.386v-6.39c0-.912.444-1.368 1.332-1.368s1.332.456 1.332 1.368v.072c.3-.48.702-.846 1.206-1.098a3.73 3.73 0 0 1 1.692-.378c1.044 0 1.824.306 2.34.918.516.6.774 1.53.774 2.79v4.086c0 .924-.456 1.386-1.368 1.386-.432 0-.768-.12-1.008-.36-.228-.24-.342-.582-.342-1.026v-3.96c0-.612-.114-1.05-.342-1.314-.228-.276-.564-.414-1.008-.414-.576 0-1.038.18-1.386.54-.336.36-.504.84-.504 1.44v3.708c0 .924-.45 1.386-1.35 1.386zM41.9 12H19.5a3.5 3.5 0 0 0-3.5 3.5v22.4a3.5 3.5 0 0 0 3.5 3.5h22.4a3.5 3.5 0 0 0 3.5-3.5V15.5a3.5 3.5 0 0 0-3.5-3.5zM25.1 23.2v13.3h-4.2V23.2h4.2zm-4.2-3.871c0-.98.84-1.729 2.1-1.729s2.051.749 2.1 1.729c0 .98-.784 1.771-2.1 1.771-1.26 0-2.1-.791-2.1-1.771zM40.5 36.5h-4.2v-7c0-1.4-.7-2.8-2.45-2.828h-.056c-1.694 0-2.394 1.442-2.394 2.828v7h-4.2V23.2h4.2v1.792s1.351-1.792 4.067-1.792c2.779 0 5.033 1.911 5.033 5.782V36.5z" fill="#000"/></svg>
